X: 22
T: The Three Little Kittens
C: words: Nursery Rhyme.
C: music: English.
Q: "Moderato."
%R: air, waltz, jig
B: "The Everyday Song Book", 1927
F: http://www.library.pitt.edu/happybirthday/pdf/The_Everyday_Song_Book.pdf
Z: 2017 John Chambers <jc:trillian.mit.edu>
M: 6/8
L: 1/8
K: Bb
% - - - - - - - - - - - - - - -
F/- F/ !mf!| B2 B/- B/ F- F F | d- d d
w: 1.~There were three lit-tle kit-tens Put on* their
w: 2.~These* three lit-tle kit-tens     They lost* their
w: 3.~Go,* go, naught-y kit-tens,       And find* your
w: 4.~These* three lit-tle kit-tens     They found* their
w: 5.~"Oh,* gran-ny,* dear!*            Our mit-tens are
%
B- B B | c- c c A- A A | B6 |
w: 1.~mit-tens, To eat* some Christ-*mas pie.
w: 2.~mit-tens, And all* be-gan* to cry.
w: 3.~mit-tens, Or you* shan't have an-y pie.
w: 4.~mit-tens, And joy-ful-ly they* did cry.
w: 5.~here._    Make haste* and cut up the pie!"
%
!p!B3 F3 | d3 B3 | c3 A3 | B3- B2 |]
w: 1\-4.~Mew, mew, mew, mew, mew, mew, mew.*
w:    5.~Pur-rr, purr-rr, pur-rr, purr.*
% - - - - - - - - - - - - - - -

%%sep 1 1 500
%%sep 1 1 500

